src/icons/svg/youtube.svg

<svg width="20" height="20" viewBox="0 0 20 20" fill="none" xmlns="http://www.w3.org/2000/svg">
<path fill-rule="evenodd" clip-rule="evenodd" d="M8.28641 12.2015V7.42312C9.98274 8.22133 11.2965 8.99241 12.8504 9.82374C11.5688 10.5345 9.98274 11.332 8.28641 12.2015ZM17.7401 5.04661C17.4475 4.66109 16.9487 4.361 16.4178 4.26165C14.8572 3.96529 5.12105 3.96445 3.56128 4.26165C3.1355 4.34147 2.75635 4.5344 2.43066 4.83416C1.05832 6.10789 1.48835 12.9385 1.81913 14.045C1.95823 14.5239 2.13805 14.8693 2.36451 15.096C2.65628 15.3958 3.05576 15.6022 3.51462 15.6947C4.79959 15.9605 11.4195 16.1091 16.3906 15.7347C16.8486 15.6548 17.2541 15.4418 17.5738 15.1293C18.8427 13.8607 18.7562 6.64642 17.7401 5.04661Z" fill="#19191C"/>
</svg>

<svg xmlns="http://www.w3.org/2000/svg" width="20" height="20" fill="none"><path fill="#19191C" fill-rule="evenodd" d="M8.286 12.202v-4.78c1.697.798 3.01 1.57 4.564 2.4-1.281.711-2.867 1.509-4.564 2.378m9.454-7.155c-.292-.386-.791-.686-1.322-.785-1.56-.297-11.297-.298-12.857 0a2.26 2.26 0 0 0-1.13.572c-1.373 1.274-.943 8.105-.612 9.211.14.479.319.824.546 1.051.291.3.69.506 1.15.599 1.285.265 7.904.414 12.876.04a2.23 2.23 0 0 0 1.183-.606c1.269-1.268 1.182-8.483.166-10.082" clip-rule="evenodd"/></svg>
